X:8
T:Lady Wampole's
T:Lady Washington's Reel
T:Boston Fancy
R:reel
N:hornpipe structure
H:Joe played it "double - single".
B:Ryan's Mammoth
D:Joe Cormier, The Dances Down Home
Z:Paul Stewart Cranford (P.S.C.), <http://www.cranfordpub.com>
L:1/8
Q:333
M:C|
K:Bb
GA|B2 d2 decd|B2 F2 F2 FE|DFBD EDEG|FGFE D2 B,2|
BFdB fdgf|bagf edcB|AcfA BABd|1cBAG F2:|2cBAG F2 F2||
|:fbfd BdBF|EDEF GFED|C2 gf edcB|ABcA F2 f2|
bfdf gece|dfBd cA F2|fgfe dcBA|1B2 d2 B2 f2:|2B2 BA BF|]
